X:1
T:Title
%%score { ( 1 3 ) | ( 2 4 5 ) }
L:1/8
Q:1/4=112
M:4/4
K:G
V:1 treble nm="Grand Piano"
V:3 treble 
V:2 bass 
V:4 bass 
V:5 bass 
V:1
 [DGB]2 [GB]2 [DGB]2 [GB]2 | [DGB]>A G>A [DGB]2 [Ac]2 | [DGBd]2 [DAB^d]2 [EGBe]2 [EB]2 | z4 =c4 | %4
w: Charles~H.~Gabriel * * *||||
 [DAc]2 [Fc]2 [DAc]2 [Fc]2 | [DAc]2 [DFA]2 [DAc]2 [=F^GB]2 | [DAc]2 [Bd]2 [Ece]2 [DFA]2 | d8 | %8
w: ||||
 [DGB]2 [GB]2 [DGB]2 [GB]2 | [DGB]>A G>A [DGB]2 [Ac]2 | [DBd]2 [DAB^d]2 [EGBe]2 [GB=f]2 | e8 | %12
w: ||||
 [EGAe]2 [^CGA]2 [DFA]2 [DFA]2 | [Gd]2 z2 G2 z2 | F2 z2 z4 | D8[K:bass] | d4 d4 | d2 d2 B2 G2 | %18
w: ||||||
 c4 c4 | c2 c2 [CFA]2 [A,DF]2 | [G,DG]2 [DFA]2 [DGB]2 [DFA]2 | [DG]2 [DFA]2 [DGB]2 [DFA]2 | %22
w: ||||
 [DGB]2 [DA]2 [DGB]2 [G^c]2 | [Fd]2 e2 f2 e2 | d4 d4 | d2 d2 d2 B2 | e4 e4 | e2 e2 e2 A2 | %28
w: ||||||
 B2 A2 d2 c2 | B2 [DFA]2 [DGd]2 [EGc]2 | z4 F2 z2 | [B,DG]6 z2 |] %32
w: ||||
V:2
 [G,,G,]2 [D,D]2 [G,,G,]2 [D,D]2 | [G,,G,]2 [D,B,D]2 [G,,G,]2 [D,D]2 | %2
 [G,,G,]2 [F,,F,]2 [E,,E,]2 [^G,,^G,]2 | [A,,A,]2 [_B,,_B,]2 [A,,A,]2 [G,,G,]2 | %4
 [F,,F,]2 [D,D]2 [F,,F,]2 [D,D]2 | z z/[K:treble] B/ z z/ B/[K:bass] [F,,F,]2 [D,D]2 | %6
 [F,,F,]2 [D,D]2 [F,,F,]2 [C,C]2 | [B,,B,]2 [C,C]2 [B,,B,]2 [A,,A,]2 | %8
 [G,,G,]2 [D,D]2 [G,,G,]2 [D,D]2 | [G,,G,]2 [D,B,D]2 [G,,G,]2 [D,D]2 | %10
 [G,,G,]2 [F,,F,]2 [E,,E,]2 [D,,D,]2 | [C,,C,]2 [B,,,B,,]2 [A,,,A,,]2 [C,,C,]2 | %12
 [^C,,^C,]2 [E,,E,]2 [D,,D,]2 [=C,C]2 | z2 G2 z2 G2 | z2[K:treble] G2 z2[K:bass] G,2 | %15
 [D,F,]2 D,2 E,2 F,2 | [G,B,D]2 [A,C]2 [B,DG]2 [A,C]2 | [G,B,G]4 [DG]2[K:bass] [B,D]2 | %18
 [F,A,D]2 [E,G,]2 [D,F,D]2 [E,G,]2 | [F,A,D]4 D,2 C,2 | B,,2 D,2 G,2 D,2 | B,,2 D,2 G,2 D,2 | %22
 G,2 F,2 G,2 [E,A,]2 | D,2- [D,-CE]2 [D,-DF]2 [D,CE]2 | [G,B,D]2 [A,C]2 [B,DG]2 [A,C]2 | %25
 [G,B,G]4 [^G,E]2- [G,DE]2 | [A,CE]2 [B,D]2 [CEA]2 [B,D]2 | [A,CA]4 [A,^CG]4 | %28
 [CDF]2 [CDF]2 [B,DG]2 [A,DF]2 | [G,DG]2[K:bass] D,C, B,,2 C,2 | D,4 z4 | G,,6 z2 |] %32
V:3
 x8 | x8 | x8 | [EBd]2 [EG^c]2 [EA]2 [^DA]2 | x8 | x8 | x8 | [DG]2 [DFA]2 [DG]2 [DFc]2 | x8 | x8 | %10
 x8 | [EGc]2 [E^Gc]2 [EAc]2 [EAc]2 | x8 | D4 [_B,D]4 | [A,-D]4 [A,F]2 E2 | z2[K:bass] F,2 G,2 A,2 | %16
 z2 F2 z2 F2 | x8 | z2 D2 z2 D2 | x8 | x8 | x8 | x8 | x8 | z2 F2 z2 F2 | x8 | z2 ^G2 z2 G2 | x8 | %28
 x8 | x8 | [DGB]4 [CA]2- [CDA]2 | x8 |] %32
V:4
 x8 | x8 | x8 | x8 | x8 | [F,,F,]2[K:treble] D,2[K:bass] z4 | x8 | x8 | x8 | x8 | x8 | x8 | x8 | %13
 [B,,B,]4 _B,,4 | z4[K:treble] ^C4[K:bass] | x8 | x8 | z4 G,4[K:bass] | x8 | x8 | x8 | x8 | x8 | %23
 A,2 z2 z4 | x8 | z4 B,2 z2 | x8 | x8 | x8 | x2[K:bass] x6 | z2 C,2 [A,,D,]2 D,2 | x8 |] %32
V:5
 x8 | x8 | x8 | x8 | x8 | x3/2[K:treble] x5/2[K:bass] x4 | x8 | x8 | x8 | x8 | x8 | x8 | x8 | x8 | %14
 A,,8[K:treble][K:bass] | x8 | x8 | x6[K:bass] x2 | x8 | x8 | x8 | x8 | x8 | x8 | x8 | x8 | x8 | %27
 x8 | x8 | x2[K:bass] x6 | x8 | x8 |] %32

